public/formular-icons/english/lower-y.svg

<svg style="vertical-align:-.464ex" xmlns="http://www.w3.org/2000/svg" width="1.109ex" height="1.464ex" viewBox="0 -442 490 647" xmlns:xlink="http://www.w3.org/1999/xlink"><defs><path id="a" d="M21 287q0 14 15 48t48 71 74 36q41 0 66-23t26-64q-2-19-3-21 0-3-16-46t-33-97-16-86q0-43 14-60t42-18q23 0 43 11t31 23 27 33q0 1 5 20t14 59 19 74q38 150 42 157 13 27 43 27 13 0 21-7t11-12 2-9q0-13-49-210T391-23q-28-83-97-132t-138-50q-45 0-79 22t-34 66q0 22 7 37t19 22 20 10 17 3q44 0 44-42 0-20-12-35t-23-20-13-5l-3-1q2-5 19-12t34-7h8q17 0 26 2 33 9 61 38t43 62 23 56 8 30l-6-4q-6-4-19-11T270-6q-20-5-39-5-46 0-81 22t-46 71q-1 7-1 31 0 57 35 149t35 117v14q0 3-4 7t-11 4h-4q-23 0-42-19t-30-41-17-42-8-22q-2-2-16-2H27q-6 6-6 9Z"/></defs><g stroke="currentColor" fill="currentColor" stroke-width="0"><use data-c="1D466" xlink:href="#a" transform="scale(1 -1)"/></g></svg>

<svg style="vertical-align: -0.464ex" xmlns="http://www.w3.org/2000/svg" width="1.109ex" height="1.464ex" role="img" focusable="false" viewBox="0 -442 490 647" xmlns:xlink="http://www.w3.org/1999/xlink"><defs><path id="MJX-81-TEX-I-1D466" d="M21 287Q21 301 36 335T84 406T158 442Q199 442 224 419T250 355Q248 336 247 334Q247 331 231 288T198 191T182 105Q182 62 196 45T238 27Q261 27 281 38T312 61T339 94Q339 95 344 114T358 173T377 247Q415 397 419 404Q432 431 462 431Q475 431 483 424T494 412T496 403Q496 390 447 193T391 -23Q363 -106 294 -155T156 -205Q111 -205 77 -183T43 -117Q43 -95 50 -80T69 -58T89 -48T106 -45Q150 -45 150 -87Q150 -107 138 -122T115 -142T102 -147L99 -148Q101 -153 118 -160T152 -167H160Q177 -167 186 -165Q219 -156 247 -127T290 -65T313 -9T321 21L315 17Q309 13 296 6T270 -6Q250 -11 231 -11Q185 -11 150 11T104 82Q103 89 103 113Q103 170 138 262T173 379Q173 380 173 381Q173 390 173 393T169 400T158 404H154Q131 404 112 385T82 344T65 302T57 280Q55 278 41 278H27Q21 284 21 287Z"></path></defs><g stroke="currentColor" fill="currentColor" stroke-width="0" transform="scale(1,-1)"><g data-mml-node="math"><g data-mml-node="mi"><use data-c="1D466" xlink:href="#MJX-81-TEX-I-1D466"></use></g></g></g></svg>
